X:1
T: Mountain Lark, The
Z: slainte
S: https://thesession.org/tunes/7862#setting7862
R: reel
M: 4/4
L: 1/8
K: Edor
FE~E2 FEDE|FE~E2 FABA|FE~E2 FEDB,|D2DE FABA:|
Be~e2 fded|Be~e2 d2cd|Be~e2 fdec|Bdce d2cd|
Be~e2 feed|egfe d3e|fd~d2 edcd|BABc dBAF||

